X: 102
T:Marriage March 3
M:6/8
L:1/8
Q:1/8=120
K:G
DGB DGB|BAG A2 F|DFA DFA|cBA B2 G|
DGB DGB|BAG A2 F|DFA DFA|DEF G3:||
DGB d2 ^c|d2 c A3|DFA c2 B|c2 d B3|
DGB d2 ^c|d2 c A3|DFA c2 B|DEF G3:||
